svg/file-icons/Ensime.svg

<svg version="1.1" xmlns="http://www.w3.org/2000/svg" width="450px" height="512px"><path d="M 0,278.45614 V 394.7807 L 224.5614,512 450,395.22807 336.84211,336.8421 224.5614,394.88597 Z M 224.5614,116.32456 337.27192,175.15789 224.5614,233.54386 111.85088,175.15789 Z M 224.5614,0 0,116.32456 v 117.2193 L 224.5614,350.76316 450,233.544 V 117.219 Z"/></svg>

<svg xmlns="http://www.w3.org/2000/svg" width="450" height="512"><path d="M0 278.456v116.325L224.561 512 450 395.228l-113.158-58.386-112.28 58.044Zm224.561-162.131 112.71 58.833-112.71 58.386-112.71-58.386Zm0-116.325L0 116.325v117.219l224.561 117.22L450 233.543V117.219Z"/></svg>
